static/img/icons/git.svg

<?xml version="1.0" encoding="UTF-8" standalone="no"?>
<svg width="78px" height="78px" viewBox="0 0 78 78" version="1.1" xmlns="http://www.w3.org/2000/svg" xmlns:xlink="http://www.w3.org/1999/xlink" xmlns:sketch="http://www.bohemiancoding.com/sketch/ns">
    <!-- Generator: Sketch 3.4.2 (15857) - http://www.bohemiancoding.com/sketch -->
    <title>Oval 19 + Git-Icon-White</title>
    <desc>Created with Sketch.</desc>
    <defs>
        <path id="path-1" d="M0.0326086957,0.0619565217 L49.9391304,0.0619565217 L49.9391304,50 L0.0326086957,50"></path>
    </defs>
    <g id="source{d}" stroke="none" stroke-width="1" fill="none" fill-rule="evenodd" sketch:type="MSPage">
        <g id="Dev" sketch:type="MSArtboardGroup" transform="translate(-472.000000, -675.000000)">
            <g id="How-we-do-it" sketch:type="MSLayerGroup" transform="translate(122.000000, 420.000000)">
                <g id="GitHub" transform="translate(266.000000, 214.000000)">
                    <g id="Oval-19-+-Git-Icon-White" transform="translate(84.000000, 41.000000)">
                        <circle id="Oval-19" fill="#506079" sketch:type="MSShapeGroup" cx="39" cy="39" r="39"></circle>
                        <g id="Git-Icon-White" transform="translate(14.000000, 14.000000)">
                            <mask id="mask-2" sketch:name="Clip 2" fill="white">
                                <use xlink:href="#path-1"></use>
                            </mask>
                            <g id="Clip-2"></g>
                            <path d="M48.9967391,22.8070652 L27.1929348,1.00380435 C25.9380435,-0.252173913 23.9016304,-0.252173913 22.6445652,1.00380435 L18.1173913,5.53206522 L23.8603261,11.2755435 C25.1951087,10.8244565 26.726087,11.1271739 27.7896739,12.1907609 C28.8597826,13.261413 29.1592391,14.8048913 28.6972826,16.1445652 L34.2326087,21.6798913 C35.5722826,21.2179348 37.1168478,21.5163043 38.1869565,22.5880435 C39.6815217,24.0820652 39.6815217,26.5043478 38.1869565,27.9994565 C36.6913043,29.4951087 34.2695652,29.4951087 32.7733696,27.9994565 C31.648913,26.8744565 31.3711957,25.2222826 31.9407609,23.8375 L26.7777174,18.675 L26.7777174,32.2597826 C27.1418478,32.4402174 27.4858696,32.6809783 27.7896739,32.9836957 C29.2842391,34.4782609 29.2842391,36.9 27.7896739,38.3967391 C26.2951087,39.8907609 23.8717391,39.8907609 22.3782609,38.3967391 C20.8836957,36.9 20.8836957,34.4782609 22.3782609,32.9836957 C22.7472826,32.6146739 23.1755435,32.3353261 23.6315217,32.1483696 L23.6315217,18.4375 C23.1755435,18.251087 22.7483696,17.973913 22.3782609,17.6027174 C21.2461957,16.4711957 20.973913,14.8092391 21.5543478,13.4190217 L15.8923913,7.75597826 L0.941304348,22.7059783 C-0.314130435,23.9630435 -0.314130435,25.9994565 0.941304348,27.2554348 L22.7461957,49.0586957 C24.0016304,50.3141304 26.0375,50.3141304 27.2951087,49.0586957 L48.9967391,27.3565217 C50.2532609,26.1005435 50.2532609,24.0625 48.9967391,22.8070652" id="Fill-1" fill="#FFFFFF" sketch:type="MSShapeGroup" mask="url(#mask-2)"></path>
                        </g>
                    </g>
                </g>
            </g>
        </g>
    </g>
</svg>

<svg width="78" height="78" viewBox="0 0 78 78" xmlns="http://www.w3.org/2000/svg" xmlns:xlink="http://www.w3.org/1999/xlink"><title>Oval 19 + Git-Icon-White</title><defs><path id="a" d="M.033.062h49.906V50H.033"/></defs><g fill="none" fill-rule="evenodd"><circle fill="#506079" cx="39" cy="39" r="39"/><g transform="translate(14 14)"><mask id="b" fill="#fff"><use xlink:href="#a"/></mask><path d="M48.997 22.807L27.193 1.004a3.216 3.216 0 0 0-4.548 0l-4.528 4.528 5.743 5.744a3.818 3.818 0 0 1 4.837 4.869l5.536 5.535A3.826 3.826 0 0 1 38.187 28a3.827 3.827 0 0 1-6.246-4.163l-5.163-5.162V32.26a3.828 3.828 0 1 1-4.4 6.137 3.828 3.828 0 0 1 1.254-6.249v-13.71a3.827 3.827 0 0 1-2.077-5.018l-5.663-5.664-14.95 14.95a3.219 3.219 0 0 0 0 4.55l21.804 21.803a3.218 3.218 0 0 0 4.55 0l21.7-21.702a3.217 3.217 0 0 0 0-4.55" fill="#FFF" mask="url(#b)"/></g></g></svg>
